src/normal/chat_3.svg

<!-- Generated by IcoMoon.io -->
<svg version="1.1" xmlns="http://www.w3.org/2000/svg" width="24" height="24" viewBox="0 0 24 24">
<title>chat-3</title>
<path d="M6.5 9c0.828 0 1.5 0.671 1.5 1.5s-0.672 1.5-1.5 1.5-1.5-0.671-1.5-1.5 0.672-1.5 1.5-1.5zM11.5 9c0.828 0 1.5 0.671 1.5 1.5s-0.672 1.5-1.5 1.5-1.5-0.671-1.5-1.5 0.672-1.5 1.5-1.5zM16.5 9c0.828 0 1.5 0.671 1.5 1.5s-0.672 1.5-1.5 1.5-1.5-0.671-1.5-1.5 0.672-1.5 1.5-1.5zM20 1h-17c-1.654 0-3 1.346-3 3v12c0 1.654 2 2 3 2v6l9-6h8c1.654 0 3-1.346 3-3v-11c0-1.654-1.346-3-3-3zM21 15c0 0.551-0.449 1-1 1h-9l-6 5v-5h-2c-0.551 0-1-0.449-1-1v-11c0-0.551 0.449-1 1-1h17c0.551 0 1 0.449 1 1v11z"></path>
</svg>

<svg xmlns="http://www.w3.org/2000/svg" width="24" height="24"><path d="M6.5 9a1.5 1.5 0 110 3 1.5 1.5 0 010-3zm5 0a1.5 1.5 0 110 3 1.5 1.5 0 010-3zm5 0a1.5 1.5 0 110 3 1.5 1.5 0 010-3zM20 1H3C1.346 1 0 2.346 0 4v12c0 1.654 2 2 3 2v6l9-6h8c1.654 0 3-1.346 3-3V4c0-1.654-1.346-3-3-3zm1 14c0 .551-.449 1-1 1h-9l-6 5v-5H3c-.551 0-1-.449-1-1V4c0-.551.449-1 1-1h17c.551 0 1 .449 1 1v11z"/></svg>
